X: 1
T: The Cobbler
R: jig
M: 6/8
L: 1/8
K: Dmaj
DFA B2A|def gfe|fdf ecA|BGB AFE|
DFA B2A|def gfe|fdf ecA|1 Adc dAF:|2 Adc d2e||
|:fad fad|faa agf|eg=c eg=c|efg gfe|
fef gfg|agf efg|fed =cAG|1 Adc d2e:|2 Adc dAF||


Tune 1911	Setting 15332

